X:1
T:Passacaglia
T:Piano Duet
T:JS Bach
%%score { ( 1 3 ) | 2 } { 4 | ( 5 6 ) }
L:1/8
M:3/4
K:Eb
V:1 treble nm="Piano"
V:3 treble 
V:2 treble 
V:4 bass nm="Piano"
V:5 bass 
V:6 bass 
V:1
 z2 | z6 | z6 | z6 | z6 | z6 | z6 | z6 | z4 z c- | cd =B2 z e- | ef d2 z d- | de c2 z c- | %12
 cd =B2 z a- | ab g2 z f- | fg e2 z e- | ef d2 z d- | de c2 z c- | cd =B2 z _B- | Bc A2 z G- | %19
 GA F2 z A- | AG TG2 z F- | FG E2 z D- | DE C2 z C- | CD T=B,3 B, | CG cd ef | d4 g2- | g2 f2 e2- | %27
 eg fe dc | =B2 z2 z a | gf e2 z a | gf e2 z a | gf ed c=B | c6 |] %33
V:2
 z2 | z6 | z6 | z6 | z6 | z6 | z6 | z6 | z4 z G- | G2 G2 z c- | c2 A2 z G- | GF F2 z A- | %12
 A2 G2 z B- | B2 c2 z A- | A2 G2 z A- | AG F2 z F- | FG E2 z G- | G2 G2 z G- | G2 F2 z E- | %19
 E2 D2 z E- | E2 z2 z =B,- | B,2 C2 z A,- | A,G,- G,2 z A,- | A,2 z A, G,>F, | E,2 z2 z2 | %25
 z D GA Bc | A3 A GF | E z FG A2- | AA Gc =B2 | c3 A GF | ED C4- | C=B, CD ED | C6 |] %33
V:3
 x2 | x6 | x6 | x6 | x6 | x6 | x6 | x6 | x6 | x6 | x6 | x6 | x6 | x6 | x6 | x6 | x6 | x6 | x6 | %19
 x6 | x6 | x6 | x6 | x6 | x6 | x6 | x6 | x6 | x6 | x6 | x6 | z A GF EF | E6 |] %33
V:4
 C,2 | G,4 E,2 | F,4 G,2 | A,4 F,2 | G,4 D,2 | E,4 =B,,2 | C,4 F,,2 | G,,6 | z4 z E- | %9
 ED- D2 z G- | GF- F2 z =B,- | B,2 C2 z E- | ED- D2 z F- | FE- E2 z D- | DC- C2 z C- | %15
 C2- CD =B,2 | CG,- G,2 z E- | ED- D2 z _D- | DC- C2 z =B,- | B,C- C2 z C- | CD =B,2 z A,- | %21
 A,G,- G,2 z F,- | F,2 E,2 z E,- | E, D,2 F, E,>D, | C,2 z G, CD | =B,3 C DE | CF DC =B,2 | %27
 C_B, z C FE | D3 E F2 | EF G z D2 | z A, G,F, E,D, | E,F, G,A, G,2 | [E,G,]6 |] %33
V:5
 C,,2 | G,,4 E,,2 | F,,4 G,,2 | A,,4 F,,2 | G,,4 D,,2 | E,,4 =B,,,2 | C,,4 F,,,2 | G,,,6 | %8
 [C,,,C,,]4 C,2 | G,4 E,2 | F,4 G,2 | A,4 F,2 | G,4 D,2 | E,4 =B,,2 | C,4 F,,2 | G,,6 | C,,4 C,2 | %17
 G,4 E,2 | F,4 G,2 | A,4 F,2 | G,4 D,2 | E,4 =B,,2 | C,4 F,,2 | G,,6 | C,,4 [C,,C,]2 | %25
 [G,,G,]4 [E,,E,]2 | [F,,F,]4 [G,,G,]2 | A,2 A,2 [F,,F,]2 | G,4 [D,,D,]2 | [E,,E,]4 [=B,,,=B,,]2 | %30
 [C,,C,]4 [F,,,F,,]2 | [G,,,G,,]6 | [C,,,C,,]6 |] %33
V:6
 x2 | x6 | x6 | x6 | x6 | x6 | x6 | x6 | x6 | x6 | x6 | x6 | x6 | x6 | x6 | x6 | x6 | x6 | x6 | %19
 x6 | x6 | x6 | x6 | x6 | x6 | x6 | x6 | A,,4 x2 | G,,4 x2 | x6 | x6 | x6 | x6 |] %33

